src/actions/16/go-parent-folder.svg

<svg version="1.1" viewBox="0 0 16 16" xmlns="http://www.w3.org/2000/svg">
 <defs>
  <style id="current-color-scheme" type="text/css">.ColorScheme-Text {
        color:#363636;
      }</style>
 </defs>
 <path class="ColorScheme-Text" d="m2 2c-1.108 0-2 0.892-2 2v9c0 1.108 0.892 2 2 2h7.6777a4.5 4.5 0 0 1-0.91602-1h-6.7617c-0.554 0-1-0.446-1-1v-6h14v0.75977a4.5 4.5 0 0 1 1 0.91406v-3.6738c0-1.108-0.892-2-2-2h-7.6289c-0.57985-0.0229-0.6047 0.076884-1.0391-0.35742-0.43381-0.43381-0.613-0.64213-1.332-0.64258h-2zm0 1h2c0.31116-1.7e-6 0.52033 1.414e-4 0.99805 0.4707 0.47877 0.47161 0.6388 0.5293 1 0.5293h8.002c0.554 0 1 0.446 1 1v1h-14v-2c0-0.554 0.446-1 1-1z" fill="currentColor"/>
 <path d="m12.5 8a3.5 3.5 0 0 0-3.5 3.5 3.5 3.5 0 0 0 3.5 3.5 3.5 3.5 0 0 0 3.5-3.5 3.5 3.5 0 0 0-3.5-3.5zm0 1.0859 2.5 2.5-0.70703 0.70703-1.293-1.293v3h-1v-3l-1.293 1.293-0.70703-0.70703 2.5-2.5z" style="fill:currentColor" class="ColorScheme-Text"/>
</svg>

<svg xmlns="http://www.w3.org/2000/svg" viewBox="0 0 16 16">
    <defs>
        <style id="current-color-scheme" type="text/css">
            .ColorScheme-Text{color:#050505;opacity:.7}
        </style>
    </defs>
    <path fill="currentColor" d="M2 2C.892 2 0 2.892 0 4v9c0 1.108.892 2 2 2h7.678a4.5 4.5 0 0 1-.916-1H2c-.554 0-1-.446-1-1V7h14v.76a4.5 4.5 0 0 1 1 .914V5c0-1.108-.892-2-2-2H6.371c-.58-.023-.605.077-1.039-.357C4.898 2.209 4.719 2 4 2H2zm0 1h2c.311 0 .52 0 .998.47.479.472.639.53 1 .53H14c.554 0 1 .446 1 1v1H1V4c0-.554.446-1 1-1z" class="ColorScheme-Text"/>
    <path d="M12.5 8A3.5 3.5 0 0 0 9 11.5a3.5 3.5 0 0 0 3.5 3.5 3.5 3.5 0 0 0 3.5-3.5A3.5 3.5 0 0 0 12.5 8zm0 1.086 2.5 2.5-.707.707L13 11v3h-1v-3l-1.293 1.293-.707-.707 2.5-2.5z" class="ColorScheme-Text" style="fill:currentColor"/>
</svg>
